X: 1
T: the Cliffs of Moher
R: jig
S: Fiddle Hell Online 2022-3-26 handout for Fiddle Hell jam session
B: the Portland Collection 1 p.57
Z: 2022 John Chambers <jc:trillian.mit.edu>
M: 6/8
L: 1/8
K: Ador
|:\
"Am"a2a bag | eaf ged | c2A BAG | "Em"EFG ABd |\
"Am"eaa bag | eaf ged | c2A BAG | "Em"EFG "Am"A3 :|
[|\
"Am"e=fe dBA | ~e3 dBA | "G"GAB dBA | GAB ~d3 |\
"Am"e=fe dBA | ~e3 dBA | "G"GAB dBA | "Em"BAG "Am"[A3E3] ||
||\
"Am"e=fe dBA | e=fe dBA | "G"GAB dBA | GAB ~d3 |\
"Am"e=fe dee | cee Bee | EFG AGE | "G"DB,G, "Am"A,3 :|
